flaticon/symbols/gemini.svg

<svg xmlns="http://www.w3.org/2000/svg" width="32" height="32" viewBox="0 0 24 24">
    <path d="M 12 0 C 5.382812 0 0 5.382812 0 12 C 0 18.617188 5.382812 24 12 24 C 18.617188 24 24 18.617188 24 12 C 24 5.382812 18.617188 0 12 0 Z M 12 23.171875 C 5.839844 23.171875 0.828125 18.160156 0.828125 12 C 0.828125 5.839844 5.839844 0.828125 12 0.828125 C 18.160156 0.828125 23.171875 5.839844 23.171875 12 C 23.171875 18.160156 18.160156 23.171875 12 23.171875 Z M 12 23.171875"/>
    <path d="M 16.964844 4.136719 C 16.964844 3.910156 16.78125 3.722656 16.550781 3.722656 C 16.324219 3.722656 16.136719 3.910156 16.136719 4.136719 C 16.136719 4.597656 15.582031 5.078125 14.636719 5.402344 L 14.363281 5.488281 C 14.226562 5.527344 14.082031 5.5625 13.933594 5.597656 C 13.871094 5.609375 13.808594 5.625 13.742188 5.636719 C 13.644531 5.65625 13.542969 5.671875 13.4375 5.6875 C 13.328125 5.703125 13.214844 5.71875 13.097656 5.730469 C 12.988281 5.742188 12.878906 5.753906 12.765625 5.761719 C 12.699219 5.769531 12.632812 5.773438 12.5625 5.777344 C 12.378906 5.785156 12.191406 5.792969 12 5.792969 C 11.808594 5.792969 11.621094 5.785156 11.4375 5.777344 C 11.367188 5.773438 11.300781 5.769531 11.234375 5.761719 C 11.121094 5.753906 11.011719 5.742188 10.902344 5.730469 C 10.785156 5.71875 10.671875 5.703125 10.5625 5.6875 C 10.460938 5.671875 10.355469 5.65625 10.257812 5.636719 C 10.191406 5.625 10.128906 5.609375 10.066406 5.597656 C 9.917969 5.5625 9.773438 5.527344 9.636719 5.488281 L 9.363281 5.402344 C 8.417969 5.078125 7.863281 4.597656 7.863281 4.136719 C 7.863281 3.910156 7.675781 3.722656 7.449219 3.722656 C 7.21875 3.722656 7.035156 3.910156 7.035156 4.136719 C 7.035156 5.023438 7.824219 5.757812 9.101562 6.191406 L 9.101562 18.222656 C 7.824219 18.65625 7.035156 19.390625 7.035156 20.277344 C 7.035156 20.503906 7.21875 20.691406 7.449219 20.691406 C 7.675781 20.691406 7.863281 20.503906 7.863281 20.277344 C 7.863281 19.816406 8.417969 19.335938 9.363281 19.011719 L 9.636719 18.925781 C 9.773438 18.886719 9.917969 18.851562 10.066406 18.816406 C 10.128906 18.804688 10.191406 18.789062 10.257812 18.777344 C 10.355469 18.757812 10.460938 18.742188 10.5625 18.726562 C 10.671875 18.710938 10.785156 18.695312 10.902344 18.683594 C 11.011719 18.671875 11.121094 18.660156 11.234375 18.652344 C 11.300781 18.644531 11.367188 18.640625 11.4375 18.636719 C 11.621094 18.628906 11.808594 18.621094 12 18.621094 C 12.191406 18.621094 12.378906 18.628906 12.5625 18.636719 C 12.632812 18.640625 12.699219 18.644531 12.765625 18.652344 C 12.878906 18.660156 12.988281 18.671875 13.097656 18.683594 C 13.214844 18.695312 13.324219 18.710938 13.433594 18.726562 C 13.539062 18.742188 13.644531 18.757812 13.742188 18.777344 C 13.808594 18.789062 13.871094 18.804688 13.933594 18.816406 C 14.082031 18.851562 14.226562 18.886719 14.359375 18.925781 L 14.636719 19.011719 C 15.582031 19.335938 16.136719 19.816406 16.136719 20.277344 C 16.136719 20.503906 16.324219 20.691406 16.550781 20.691406 C 16.78125 20.691406 16.964844 20.503906 16.964844 20.277344 C 16.964844 19.390625 16.175781 18.65625 14.898438 18.222656 L 14.898438 6.191406 C 16.175781 5.757812 16.964844 5.023438 16.964844 4.136719 Z M 14.070312 6.417969 L 14.070312 17.996094 C 14.0625 17.996094 14.054688 17.992188 14.046875 17.992188 C 13.964844 17.976562 13.882812 17.960938 13.800781 17.945312 C 13.710938 17.929688 13.625 17.914062 13.53125 17.898438 C 13.515625 17.898438 13.5 17.894531 13.484375 17.894531 C 13.179688 17.851562 12.863281 17.820312 12.53125 17.804688 C 12.359375 17.796875 12.179688 17.792969 12 17.792969 C 11.820312 17.792969 11.640625 17.796875 11.46875 17.804688 C 11.136719 17.820312 10.820312 17.851562 10.515625 17.894531 C 10.5 17.894531 10.484375 17.898438 10.46875 17.898438 C 10.375 17.914062 10.289062 17.929688 10.199219 17.945312 C 10.117188 17.960938 10.035156 17.976562 9.953125 17.992188 C 9.945312 17.992188 9.9375 17.996094 9.929688 17.996094 L 9.929688 6.417969 C 9.9375 6.417969 9.945312 6.421875 9.953125 6.421875 C 10.035156 6.4375 10.117188 6.453125 10.199219 6.46875 C 10.289062 6.484375 10.375 6.5 10.46875 6.515625 C 10.484375 6.515625 10.5 6.519531 10.515625 6.519531 C 10.820312 6.5625 11.136719 6.59375 11.46875 6.609375 C 11.640625 6.617188 11.820312 6.621094 12 6.621094 C 12.179688 6.621094 12.359375 6.617188 12.53125 6.609375 C 12.863281 6.59375 13.179688 6.5625 13.484375 6.519531 C 13.5 6.519531 13.515625 6.515625 13.53125 6.511719 C 13.625 6.5 13.710938 6.484375 13.800781 6.46875 C 13.882812 6.453125 13.964844 6.4375 14.046875 6.421875 C 14.054688 6.421875 14.0625 6.417969 14.070312 6.417969 Z M 14.070312 6.417969"/>
</svg>

<svg xmlns="http://www.w3.org/2000/svg" width="32" height="32" viewBox="0 0 24 24">
    <path d="M12 0C5.383 0 0 5.383 0 12s5.383 12 12 12 12-5.383 12-12S18.617 0 12 0zm0 23.172C5.84 23.172.828 18.16.828 12 .828 5.84 5.84.828 12 .828 18.16.828 23.172 5.84 23.172 12c0 6.16-5.012 11.172-11.172 11.172zm0 0"/>
    <path d="M16.965 4.137a.414.414 0 0 0-.828 0c0 .46-.555.941-1.5 1.265l-.274.086c-.136.04-.281.074-.43.11-.062.011-.124.027-.19.039a8.055 8.055 0 0 1-.645.094c-.11.011-.22.023-.332.03a3.299 3.299 0 0 1-.204.016c-.183.008-.37.016-.562.016-.191 0-.379-.008-.563-.016a3.299 3.299 0 0 1-.203-.015 8.714 8.714 0 0 1-.671-.074c-.102-.016-.208-.032-.305-.051-.067-.012-.13-.028-.192-.04a9.813 9.813 0 0 1-.43-.109l-.273-.086c-.945-.324-1.5-.804-1.5-1.265a.414.414 0 0 0-.828 0c0 .886.79 1.62 2.067 2.054v12.032c-1.278.433-2.067 1.168-2.067 2.054a.414.414 0 0 0 .828 0c0-.46.555-.941 1.5-1.265l.274-.086c.136-.04.281-.074.43-.11.062-.011.124-.027.19-.039.098-.02.204-.035.306-.05.109-.016.222-.032.34-.043.109-.012.218-.024.331-.032.067-.007.133-.011.204-.015.183-.008.37-.016.562-.016.191 0 .379.008.563.016a8.712 8.712 0 0 1 .535.047c.117.011.226.027.336.043.105.015.21.03.308.05.067.012.13.028.192.04.148.035.293.07.425.109l.278.086c.945.324 1.5.804 1.5 1.265a.414.414 0 0 0 .828 0c0-.886-.79-1.62-2.067-2.054V6.19c1.278-.433 2.067-1.168 2.067-2.054zM14.07 6.418v11.578c-.008 0-.015-.004-.023-.004l-.246-.047-.27-.047c-.015 0-.031-.003-.047-.003A10.257 10.257 0 0 0 12 17.793a10.257 10.257 0 0 0-1.484.102c-.016 0-.032.003-.047.003l-.27.047-.246.047c-.008 0-.015.004-.023.004V6.418c.008 0 .015.004.023.004l.246.047.27.047c.015 0 .031.004.047.004A10.257 10.257 0 0 0 12 6.62a10.257 10.257 0 0 0 1.484-.102c.016 0 .032-.003.047-.007.094-.012.18-.028.27-.043l.246-.047c.008 0 .015-.004.023-.004zm0 0"/>
</svg>
